icon-svg/ceiling-buratto-three.svg

<svg xmlns="http://www.w3.org/2000/svg" fill="#44739e" viewBox="0 0 24 24"><path d="M21.527 5.376H4.731a.51.51 0 0 0-.473.474v1.892l1.183.946h2.366v.237c-.237.236-.71.473-.947.709L2.6 13.892c-.946.947-.709 2.6.237 3.785a4.253 4.253 0 0 0 2.129.947 2.148 2.148 0 0 0 1.656-.71l.946-.946c.237.236.237.473.473.709a2.89 2.89 0 0 0 2.129.947 2.148 2.148 0 0 0 1.656-.71l.946-.946c.237.236.237.473.473.709a3 3 0 0 0 2.129.947 2.148 2.148 0 0 0 1.656-.71l4.258-4.258A2.687 2.687 0 0 0 22 11.763a2.153 2.153 0 0 0-.946-1.892c-.237-.237-.473-.237-.71-.473v-.473h.473L22 7.979V5.85c-.237-.237-.237-.474-.473-.474M5.914 17.2c-.71.71-1.656.473-2.6-.236a1.835 1.835 0 0 1-.239-2.364 1.8 1.8 0 0 1 .947-.473 2.045 2.045 0 0 1 1.419.71c.946.709 1.183 1.892.473 2.365m4.968 0c-.473.71-1.656.473-2.366-.236a1.3 1.3 0 0 1-.709-1.183 1.778 1.778 0 0 1 .236-1.183c.473-.236.71-.473 1.183-.473a2.045 2.045 0 0 1 1.419.71 1.3 1.3 0 0 1 .71 1.182 1.807 1.807 0 0 1-.473 1.183M8.753 9.634V8.452c0-.237.236-.237.236 0v1.182zm4.258-.709c-.473.236-.71.473-1.183.709l-.71.71c0-.236-.236-.473-.473-.71a.869.869 0 0 1-.709-.234v-.475Zm3.075 8.275a1.6 1.6 0 0 1-2.365-.236c-.71-.71-.947-1.893-.474-2.366.474-.236.71-.473 1.183-.473a2.05 2.05 0 0 1 1.42.71c.709.709.946 1.892.236 2.365m-2.129-7.57V8.452c0-.237.237-.237.237 0v1.182Zm4.258-.709a5.2 5.2 0 0 0-1.183.709l-.946.947c-.236-.237-.236-.473-.473-.71s-.473-.237-.473-.473v-.469Zm1.183.709h-.473V8.452c0-.237.236-.237.236 0v1.182Zm1.656-2.365H5.2v-.942h15.85z"/></svg>

<?xml version="1.0" encoding="UTF-8"?>
<svg width="24px" height="24px" viewBox="0 0 24 24" version="1.1" fill="#44739e" xmlns="http://www.w3.org/2000/svg" xmlns:xlink="http://www.w3.org/1999/xlink">
            <path d="M 21.527,5.376 H 4.731 A 0.51,0.51 0 0 0 4.258,5.85 v 1.892 0 L 5.441,8.688 H 7.807 V 8.925 C 7.57,9.161 7.097,9.398 6.86,9.634 L 2.6,13.892 c -0.946,0.947 -0.709,2.6 0.237,3.785 a 4.253,4.253 0 0 0 2.129,0.947 2.148,2.148 0 0 0 1.656,-0.71 l 0.946,-0.946 c 0.237,0.236 0.237,0.473 0.473,0.709 a 2.891,2.891 0 0 0 2.129,0.947 2.148,2.148 0 0 0 1.656,-0.71 l 0.946,-0.946 c 0.237,0.236 0.237,0.473 0.473,0.709 a 3,3 0 0 0 2.129,0.947 2.148,2.148 0 0 0 1.656,-0.71 l 4.258,-4.258 A 2.687,2.687 0 0 0 22,11.763 2.153,2.153 0 0 0 21.054,9.871 C 20.817,9.634 20.581,9.634 20.344,9.398 V 8.925 h 0.473 L 22,7.979 v 0 V 5.85 C 21.763,5.613 21.763,5.376 21.527,5.376 M 5.914,17.2 c -0.71,0.71 -1.656,0.473 -2.6,-0.236 A 1.835,1.835 0 0 1 3.075,14.6 a 1.8,1.8 0 0 1 0.947,-0.473 2.045,2.045 0 0 1 1.419,0.71 c 0.946,0.709 1.183,1.892 0.473,2.365 m 4.968,0 c -0.473,0.71 -1.656,0.473 -2.366,-0.236 A 1.3,1.3 0 0 1 7.807,15.783 1.778,1.778 0 0 1 8.043,14.6 c 0.473,-0.236 0.71,-0.473 1.183,-0.473 a 2.045,2.045 0 0 1 1.419,0.71 1.3,1.3 0 0 1 0.71,1.182 1.807,1.807 0 0 1 -0.473,1.183 M 8.753,9.634 V 8.452 c 0,-0.237 0.236,-0.237 0.236,0 v 1.182 z m 4.258,-0.709 c -0.473,0.236 -0.71,0.473 -1.183,0.709 l -0.71,0.71 c 0,-0.236 -0.236,-0.473 -0.473,-0.71 A 0.869,0.869 0 0 1 9.936,9.4 V 8.925 Z m 3.075,8.275 a 1.6,1.6 0 0 1 -2.365,-0.236 c -0.71,-0.71 -0.947,-1.893 -0.474,-2.366 0.474,-0.236 0.71,-0.473 1.183,-0.473 a 2.049,2.049 0 0 1 1.42,0.71 c 0.709,0.709 0.946,1.892 0.236,2.365 M 13.957,9.63 V 8.452 c 0,-0.237 0.237,-0.237 0.237,0 V 9.634 Z M 18.215,8.921 A 5.186,5.186 0 0 0 17.032,9.63 l -0.946,0.947 C 15.85,10.34 15.85,10.104 15.613,9.867 15.376,9.63 15.14,9.63 15.14,9.394 V 8.925 Z M 19.398,9.63 H 18.925 V 8.452 c 0,-0.237 0.236,-0.237 0.236,0 V 9.634 Z M 21.054,7.265 H 5.2 V 6.323 h 15.85 z"/>

</svg>
